X:30
T:Menuet
R:Menuet
C:Mads Nielsen
S:For Borgere og Bnder p.467
H:1764
N:Mads Nielsen nodebog 1764 nr.18
N:Jens Henrik Koudal Museum Tusculanum Forlag
O:Danmark
Z:<anamnese@laposte.net> -- http://anamnese.fr.st
M:3/4
L:1/8
Q:1/4=135
K:D
|: d2d2d2 | cdec d2 | B2 A2 G2 | FGAF D2 |\
A2 A2 A2 | ^GABG A2 | dbcaB^g  | a6 :|!
|: e2 efed | c2 Bc A2|f2 fefc | d2 cd B2 |
g2f2e2 | fdec d2 | b2 a2 g2 | fefg a2 | f2 edec | d6 :|
